X: 240
T:Miss Anne Gordon
B:William Marshall Volume 2nd Of A Collection Of Scottish Melodies (1845)
C:William Marshall
L:1/8
M:4/4
O:Scotland
R:Slow Strathspey
Z:Clark Bernst
%%Page:32 - 3
F:http://richardrobinson.tunebook.org.uk/tune/4083
%%TBL:{"version":1,"type":"tune","id":"4083"}
K:F
A [| \
F/F/F F3/2d/ c/F3/2A/f3/2 | F/F/F F3/2G/ AGD3/2E/ | \
F/F/F F3/2d/ c/F3/2A/g3/2 | f/d3/2c3/2A/ A3/2G/DA |
F/F/F F3/2d/ c/F3/2A/f3/2 | F/F/F F3/2G/ AGD3/2E/ | \
F/F/F F3/2d/ c/F3/2A/g3/2 | f/d3/2c3/2A/ A3/2G/De [|
f/A3/2f/a3/2 c/f3/2Aa | f/c3/2f3/2a/ g2 d3/2e/ | \
f/A3/2f/a3/2 c3/2f/a3/2g/ | f/A3/2 A/A/A G2 De |
f/A3/2f/a3/2 c/f3/2Aa | f/c3/2f3/2a/ g2 d3/2e/ | \
f3/2a/g3/2b/ a/f3/2g3/2e/ |[f/A/]A3/2 A/A/A A3/2G/DA |]

